icon/fa/microphone.svg

<svg xmlns="http://www.w3.org/2000/svg" viewBox="0 0 384 512"><!--! Font Awesome Free 6.1.2 by @fontawesome - https://fontawesome.com License - https://fontawesome.com/license/free (Icons: CC BY 4.0, Fonts: SIL OFL 1.1, Code: MIT License) Copyright 2022 Fonticons, Inc.--><path d="M192 352c53.03 0 96-42.97 96-96V96c0-53.03-42.97-96-96-96S96 42.97 96 96v160c0 53 42.1 96 96 96zm152-160c-13.3 0-24 10.7-24 23.1V256c0 73.33-61.97 132.4-136.3 127.7C117.62 379.531 64 317.11 64 250.9v-35.8c0-12.4-10.75-23.1-24-23.1s-24 10.7-24 23.1v32.15c0 89.66 63.97 169.6 152 181.7V464h-40c-18.19 0-32.84 15.18-31.96 33.57C96.43 505.8 103.8 512 112 512h160c8.222 0 15.57-6.216 15.96-14.43C288.8 479.2 274.2 464 256 464h-40v-33.77C301.7 418.5 368 344.9 368 256v-40.9c0-12.4-10.7-23.1-24-23.1z"/></svg>

<svg xmlns="http://www.w3.org/2000/svg" viewBox="0 0 384 512" height="1em" width="1em">
<!--! Font Awesome Free 6.1.2 by @fontawesome - https://fontawesome.com License - https://fontawesome.com/license/free (Icons: CC BY 4.0, Fonts: SIL OFL 1.1, Code: MIT License) Copyright 2022 Fonticons, Inc.-->
  <path d="M192 352c53.03 0 96-42.97 96-96v-160c0-53.03-42.97-96-96-96s-96 42.97-96 96v160C96 309 138.1 352 192 352zM344 192C330.7 192 320 202.7 320 215.1V256c0 73.33-61.97 132.4-136.3 127.7c-66.08-4.169-119.7-66.59-119.7-132.8L64 215.1C64 202.7 53.25 192 40 192S16 202.7 16 215.1v32.15c0 89.66 63.97 169.6 152 181.7V464H128c-18.19 0-32.84 15.18-31.96 33.57C96.43 505.8 103.8 512 112 512h160c8.222 0 15.57-6.216 15.96-14.43C288.8 479.2 274.2 464 256 464h-40v-33.77C301.7 418.5 368 344.9 368 256V215.1C368 202.7 357.3 192 344 192z"/>
</svg>
